X: 10732
T: Dr. Alasdair Mackenzie
R: reel
M: 4/4
K: Gmajor
|:GDDD GABd|dBAB GEEE|GDDD GABd|dBAB G4:|
|:BdGA BdGA|BdAB GEEB-|BdGA BdGA|BdAB G3 A|
Bddd BdAB|GBBA GEEE|GDDD GABd|dBAB G4:|
|:GEEE GABd|dBAB GEEE|GFFF GABd|dBAB G4|
FGGG GABd|dBAB GEEE|GAAA GABd|dBAB G4:|

